X:1
T:The Fire Is Burning
T:The Fire Is Burning
T:George Crawford Hugg
T:Johnson Oatman, Jr., 1898
T:Public Domain Courtesy of the Cyber Hymnal™
T:Public Domain Courtesy of the Cyber Hymnal™
C:George Crawford Hugg
Z:Public Domain
Z:Courtesy of the Cyber Hymnal™
%%score ( 1 2 ) ( 3 4 )
L:1/8
Q:1/4=105
M:4/4
K:Db
V:1 treble 
V:2 treble 
V:3 bass 
V:4 bass 
V:1
 [FA]3 [FA] [GB][FA][DF]D | [DB]2 [Dd]2 [Gd]2 [Ac][GB] | [FA]3 [FA] [GB][FA][EG][DF] | %3
w: 1.~I’ve been on Mount Pis- gah’s|loft- y height, And I’ve|sat- is- fied my long- ing|
w: 2.~I will walk with Je- sus,|bless His name, And to|be like Him I ev- ery|
w: 3.~I my all up- on the|al- tar lay, As I|to my clo- set lov- ing-|
w: 4.~By faith’s eye I scan the|o- cean’s foam, And be-|yond I see the ha- ven|
 [CE]2 [EA]2 A4 | [FA]3 [FA] [GB][FA][DF]D | [DB]2 [Dd]2 [Bd]2 [Ac][GB] | %6
w: heart’s de- sire;|For I caught a glimpse of|glo- ry bright, And my|
w: day as- pire;|For His love is like a|heav’n- ly flame, And my|
w: ly re- tire;|And the flame con- sumes while|there I pray, And my|
w: I de- sire;|There I view the bea- con|lights of home, And my|
 [FA]3 [FA] [GB][GA][CE][CF] | (D6 FG) ||"^Refrain" [FA]3 [FA] [GB][FA][DF][FA] | %9
w: soul is burn- ing with the|fire. * *||
w: soul is burn- ing with the|fire. * *|O the fire is burn- ing,|
w: soul is burn- ing with the|fire. * *||
w: soul is burn- ing with the|fire. * *||
 [Fd]3 [Fd] [Ge][Gd][GB][Gd] | [FA]3 [FA] [GB][FA][DF][A,D] | [CE]2 [CA]2 A4 | %12
w: |||
w: yes, ’tis bright- ly burn- ing,|O ’tis burn- ing, burn- ing|in my soul;|
w: |||
w: |||
 [FA]3 [FA] [GB][FA][DF][FA] | [Fd]3 [Fd] [Ge][Gd][GB][Gd] | [FA]3 [FA] [GB][FA]FA | d2 c2 [Fd]4 |] %16
w: ||||
w: O the fire is burn- ing,|yes, ’tis bright- ly burn- ing,|O ’tis burn- ing, burn- ing|in my soul.|
w: ||||
w: ||||
V:2
 x7 D | x8 | x8 | x4 (D2 C2) | x7 D | x8 | x8 | D6 x2 || x8 | x8 | x8 | x4 (D2 C2) | x8 | x8 | %14
 x6 FA | (FF) (GG) x4 |] %16
V:3
 [D,D]3 [D,D] [D,D][D,D][D,A,][D,F,] | G,2 [G,B,]2 [G,B,]2 [G,D][G,D] | %2
w: ~ ~ ~ ~ ~ ~|~ ~ ~ ~ ~|
 [D,D]3 [D,D] [D,D][D,D][C,A,][D,A,] | A,2 [G,A,]2 A,4 | [D,A,]3 [D,D] [D,D][D,D][D,A,][D,F,] | %5
w: ~ ~ ~ ~ ~ ~|~ ~ ~|~ ~ ~ ~ ~ ~|
 G,2 [G,B,]2 [G,D]2 [G,D][G,D] | [A,D]3 [A,D] [A,C][A,C][A,,G,][A,,A,] | [D,F,]6 z2 || %8
w: ~ ~ ~ ~ ~|~ ~ ~ ~ ~ ~|~|
 [D,D]3 [D,D] [D,D][D,D][D,A,][D,D] | [D,A,]3 [D,A,] [G,B,][G,B,][G,D][G,B,] | %10
w: ~ ~ ~ ~ ~ ~|~ ~ ~ ~ ~ ~|
 [D,D]3 [D,D] [D,D][D,D][D,A,][D,F,] | A,2 [G,A,]2 A,4 | [D,D]3 [D,D] [D,D][D,D][D,A,][D,D] | %13
w: ~ ~ ~ ~ ~ ~|~ ~ ~|~ ~ ~ ~ ~ ~|
 [D,A,]3 [D,A,] [G,B,][G,B,][G,D][G,B,] | [D,D]3 [D,D] [D,D][D,D]D,F, | A,A, A,A, [D,A,]4 |] %16
w: ~ ~ ~ ~ ~ ~|~ ~ ~ ~ ~ ~|burn- ing in my soul.|
V:4
 x8 | G,2 x6 | x8 | A,2 (F,2 E,2) x2 | x8 | G,2 x6 | x8 | x8 || x8 | x8 | x8 | A,2 (F,2 E,2) x2 | %12
 x8 | x8 | x6 D,F, | A,2 A,,2 x4 |] %16

